X: 31556
T: Pádraig O'Keeffe's
R: polka
M: 2/4
K: Gmajor
|:dB ce|d2 de|dB GB|A2 AF|
GA Bd|eg b2|ag ef|1 g2 ge:|2 g2 fg/f/||
|:e>e ed|ef ge|dB GB|A2 AF|
GA Bd|eg b2|ag ef|1 g2 fg/f/:|2 g2 ge||

